X:22
T:Chalk Hornpipe
T:John Malchairs Third Collection of Tunes
%%VWML:Malchair-3619-p22
F:https://www.vwml.org/record/Malchair/3619/p22
F:www.vwml.org/topics/historic-dance-and-tune-books/Malchair
Z:Peter Dunk Feb 2020
M:3/2
L:1/4
K:D
d2 A B/c/ dD|F A2 dcB|e2 B c/d/ eE|G B2 ec A||
d3/e/ fd f/g/a/f/|d f2 a gf|eg fa gb|a e2 dc A|
d A2 GF D|F G2 dc B|eE GE BE|G B2 eB A||
d3/e/ fd f/g/a/f/|d f2 a gf|e/f/g/e/ f/g/a/f/ g/a/b/g/|a e2 dc A||
W:
T:Boys and Girls to Play
T:John Malchairs Third Collection of Tunes
F:https://www.vwml.org/record/Malchair/3619/p22
F:www.vwml.org/topics/historic-dance-and-tune-books/Malchair
Z:Peter Dunk Feb 2020
M:6/4
L:1/4
K:C
g3 f2 d|g2 e c2 c|d2 e fe d|g2 e c3||
gfe f2d|gfe c2c|dd ef ed|g2e c3|
g2e fga|g2e c2c|dde fed|g2e c3|
gfe fed|g3 c3|g3 fed|g3c3|
g2e f2d|gfe c2c|dde fed|g2e c3|]
W:
T:Albion Queen or Barksheir
T:John Malchairs Third Collection of Tunes
F:https://www.vwml.org/record/Malchair/3619/p22
F:www.vwml.org/topics/historic-dance-and-tune-books/Malchair
Z:Peter Dunk Feb 2020
M:9/4
L:1/4
K:G
g3 B2e dBG|A3 G2B AFD|GBG dfd gbg|g3 f2b afd||
geg _fd_f ece|dBd cAc BGd|geg afa bgb|afa geg _fd_f|
e3 d3 c2e|dBd cAc BGd|e3 f3 g2c|(Bd)A A2G G3|]

